resources/img/scalable/actions/flypie-go-updown-symbolic.svg

<?xml version="1.0" encoding="UTF-8" standalone="no"?>
<svg
   xmlns:dc="http://purl.org/dc/elements/1.1/"
   xmlns:cc="http://creativecommons.org/ns#"
   xmlns:rdf="http://www.w3.org/1999/02/22-rdf-syntax-ns#"
   xmlns:svg="http://www.w3.org/2000/svg"
   xmlns="http://www.w3.org/2000/svg"
   xmlns:sodipodi="http://sodipodi.sourceforge.net/DTD/sodipodi-0.dtd"
   xmlns:inkscape="http://www.inkscape.org/namespaces/inkscape"
   width="4.2333336mm"
   height="4.2333336mm"
   version="1.1"
   viewBox="0 0 4.2333334 4.2333334"
   id="svg923"
   sodipodi:docname="flypie-go-updown-symbolic.svg"
   inkscape:version="1.0.2 (e86c870879, 2021-01-15)">
  <defs
     id="defs927" />
  <sodipodi:namedview
     pagecolor="#ffffff"
     bordercolor="#666666"
     borderopacity="1"
     objecttolerance="10"
     gridtolerance="10"
     guidetolerance="10"
     inkscape:pageopacity="0"
     inkscape:pageshadow="2"
     inkscape:window-width="1485"
     inkscape:window-height="1131"
     id="namedview925"
     showgrid="false"
     inkscape:zoom="36.104999"
     inkscape:cx="13.987711"
     inkscape:cy="8.4825443"
     inkscape:window-x="387"
     inkscape:window-y="32"
     inkscape:window-maximized="0"
     inkscape:current-layer="svg923"
     inkscape:document-rotation="0"
     fit-margin-top="0"
     fit-margin-left="0"
     fit-margin-right="0"
     fit-margin-bottom="0"
     showguides="true"
     inkscape:guide-bbox="true">
    <sodipodi:guide
       position="2.1105109,4.3798964"
       orientation="1,0"
       id="guide8242" />
    <sodipodi:guide
       position="1.6781493,2.1154941"
       orientation="0,-1"
       id="guide8244" />
  </sodipodi:namedview>
  <metadata
     id="metadata907">
    <rdf:RDF>
      <cc:Work
         rdf:about="">
        <dc:format>image/svg+xml</dc:format>
        <dc:type
           rdf:resource="http://purl.org/dc/dcmitype/StillImage" />
        <dc:title></dc:title>
      </cc:Work>
    </rdf:RDF>
  </metadata>
  <path
     sodipodi:nodetypes="cccccccc"
     inkscape:connector-curvature="0"
     style="color:#000000;display:inline;overflow:visible;visibility:visible;fill:#2e3436;fill-opacity:1;stroke:none;stroke-width:0.529167;stroke-linecap:round;stroke-linejoin:round;stroke-opacity:1;marker:none;enable-background:new"
     d="M 1.5648078,2.6450238 V 1.5866906 H 0.75452142 L 2.1105109,0.05706835 3.4665003,1.5866906 H 2.623141 v 1.0583332 z"
     id="path10288" />
  <path
     sodipodi:nodetypes="cccccccc"
     inkscape:connector-curvature="0"
     style="color:#000000;display:inline;overflow:visible;visibility:visible;fill:#2e3436;fill-opacity:1;stroke:none;stroke-width:0.529167;stroke-linecap:round;stroke-linejoin:round;stroke-opacity:1;marker:none;enable-background:new"
     d="M 1.5648078,1.5866906 V 2.6450238 H 0.7545214 L 2.1105109,4.1746461 3.4665003,2.6450238 H 2.623141 V 1.5866906 Z"
     id="path8216" />
</svg>

<svg xmlns="http://www.w3.org/2000/svg" width="16" height="16" viewBox="0 0 4.233 4.233"><path style="color:#000;display:inline;overflow:visible;visibility:visible;fill:#2e3436;fill-opacity:1;stroke:none;stroke-width:.529167;stroke-linecap:round;stroke-linejoin:round;stroke-opacity:1;marker:none;enable-background:new" d="M1.565 2.645V1.587h-.81L2.11.057l1.356 1.53h-.844v1.058z"/><path style="color:#000;display:inline;overflow:visible;visibility:visible;fill:#2e3436;fill-opacity:1;stroke:none;stroke-width:.529167;stroke-linecap:round;stroke-linejoin:round;stroke-opacity:1;marker:none;enable-background:new" d="M1.565 1.587v1.058h-.81l1.356 1.53 1.356-1.53h-.844V1.587Z"/></svg>
